**kern	**silbe	**harmony	**phrase	**leadinstrument	**rhyme	**timestamp	**harte
*ICvox	*	*M4/4	*	*	*	*	*M4/4
*VRlead	*	*	*	*	*	*	*
*Hstimme	*	*	*	*	*	*	*
*F:	*	*F:	*	*	*	*	*F:
r;	.	1r;	.	r	.	0	N.C.
=1	=1	=1	=1	=1	=1	=1	=1
*>Letter>A	*>Letter>A	*>Letter>A	*>Letter>A	*>Letter>A	*>Letter>A	*>Letter>A	*>Letter>A
*>Label>Intro	*>Label>Intro	*>Label>Intro	*>Label>Intro	*>Label>Intro	*>Label>Intro	*>Label>Intro	*>Label>Intro
*M4/4	*	*	*	*	*	*	*
*clefG2	*	*	*	*	*	*	*
1r	.	1FM	newline	strings	.	0.255	F:maj
=2	=2	=2	=2	=2	=2	=2	=2
1r	.	1FM	.	strings	.	2.019	F:maj
=3	=3	=3	=3	=3	=3	=3	=3
1r	.	1B-M	.	strings	.	3.782	B-:maj
=4	=4	=4	=4	=4	=4	=4	=4
1r	.	2.B-M	.	strings	.	5.545	B-:maj
.	.	4CM	.	strings	.	6.867	C:maj
=5	=5	=5	=5	=5	=5	=5	=5
*>Letter>A	*>Letter>A	*>Letter>A	*>Letter>A	*>Letter>A	*>Letter>A	*>Letter>A	*>Letter>A
*>Label>Verse	*>Label>Verse	*>Label>Verse	*>Label>Verse	*>Label>Verse	*>Label>Verse	*>Label>Verse	*>Label>Verse
4r	.	1FM	newline	voice	.	7.308	F:maj
8f	Hon-	.	.	.	(A	.	.
8f	-ey	.	.	.	a)	.	.
8e	hon-	.	.	.	(A	.	.
8f	-ey	.	.	.	a)	.	.
8r	.	.	.	.	.	.	.
[8a	how	.	.	.	.	.	.
=6	=6	=6	=6	=6	=6	=6	=6
8a]	_	1FM	.	voice	.	9.027	F:maj
4f	you	.	.	.	.	.	.
[8e	thrill	.	.	.	(B	.	.
8e]	_	.	.	.	.	.	.
8f	me	.	.	.	a)	.	.
8r	.	.	.	.	.	.	.
8c	ah	.	.	.	.	.	.
=7	=7	=7	=7	=7	=7	=7	=7
8d	hah	1B-M	.	voice	.	10.745	B-:maj
8r	.	.	.	.	.	.	.
8f	hon-	.	.	.	(A	.	.
8f	-ey	.	.	.	a)	.	.
8e	hon-	.	.	.	(A	.	.
8f	-ey	.	.	.	a)	.	.
4r	.	.	.	.	.	.	.
=8	=8	=8	=8	=8	=8	=8	=8
1r	.	1B-M	.	voice	.	12.464	B-:maj
=9	=9	=9	=9	=9	=9	=9	=9
4r	.	1FM	.	voice	.	14.182	F:maj
8f	Hon-	.	.	.	(A	.	.
8f	-ey	.	.	.	a)	.	.
8e	hon-	.	.	.	(A	.	.
8f	-ey	.	.	.	a)	.	.
8r	.	.	.	.	.	.	.
[8a	near-	.	.	.	.	.	.
=10	=10	=10	=10	=10	=10	=10	=10
8a]	_	1FM	.	voice	.	15.901	F:maj
4f	-ly	.	.	.	(a	.	.
[8e	kill	.	.	.	B	.	.
8e]	_	.	.	.	.	.	.
8f	me	.	.	.	a)	.	.
8r	.	.	.	.	.	.	.
8c	ah	.	.	.	.	.	.
=11	=11	=11	=11	=11	=11	=11	=11
8d	hah	1B-M	.	voice	.	17.619	B-:maj
8r	.	.	.	.	.	.	.
8f	hon-	.	.	.	(A	.	.
8f	-ey	.	.	.	a)	.	.
8e	hon-	.	.	.	(A	.	.
8f	-ey	.	.	.	a)	.	.
4r	.	.	.	.	.	.	.
=12	=12	=12	=12	=12	=12	=12	=12
2r	.	1B-M	.	voice	.	19.338	B-:maj
4r	.	.	.	.	.	.	.
8r	.	.	.	.	.	.	.
8c	I'd	.	.	.	C	.	.
=13	=13	=13	=13	=13	=13	=13	=13
*>Letter>B	*>Letter>B	*>Letter>B	*>Letter>B	*>Letter>B	*>Letter>B	*>Letter>B	*>Letter>B
*>Label>Verse	*>Label>Verse	*>Label>Verse	*>Label>Verse	*>Label>Verse	*>Label>Verse	*>Label>Verse	*>Label>Verse
8cc	heard	1FM	newline	voice	.	21.056	F:maj
8cc	a-	.	.	.	.	.	.
8cc	-bout	.	.	.	.	.	.
4a	you	.	.	.	.	.	.
8a	be-	.	.	.	.	.	.
8f	-fore	.	.	.	D	.	.
8d	_	.	.	.	.	.	.
=14	=14	=14	=14	=14	=14	=14	=14
2r	.	1Dm	.	voice	.	22.773	D:min
4r	.	.	.	.	.	.	.
8r	.	.	.	.	.	.	.
8c	I	.	.	.	C	.	.
=15	=15	=15	=15	=15	=15	=15	=15
8cc	wan-	1FM	.	voice	.	24.489	F:maj
8cc	-ted	.	.	.	.	.	.
8cc	to	.	.	.	.	.	.
4a	know	.	.	.	.	.	.
8a	some	.	.	.	.	.	.
8f	more	.	.	.	D	.	.
8d	_	.	.	.	.	.	.
=16	=16	=16	=16	=16	=16	=16	=16
2r	.	1Dm	.	voice	.	26.205	D:min
4r	.	.	.	.	.	.	.
8r	.	.	.	.	.	.	.
8c	and	.	.	.	.	.	.
=17	=17	=17	=17	=17	=17	=17	=17
8cc	now	1FM	newline	voice	.	27.921	F:maj
8cc	I	.	.	.	C	.	.
8cc	know	.	.	.	.	.	.
4a	what	.	.	.	.	.	.
8a	they	.	.	.	.	.	.
8f	mean	.	.	.	E	.	.
8d	_	.	.	.	.	.	.
=18	=18	=18	=18	=18	=18	=18	=18
4r	.	1Dm	.	voice	.	29.643	D:min
8d	you're	.	.	.	.	.	.
8d	a	.	.	.	.	.	.
8e	love	.	.	.	.	.	.
8f	ma-	.	.	.	.	.	.
8r	.	.	.	.	.	.	.
[8b-	-chine	.	.	.	E	.	.
=19	=19	=19	=19	=19	=19	=19	=19
1b-]	_	1B-M	.	voice	.	31.366	B-:maj
=20	=20	=20	=20	=20	=20	=20	=20
8b-	oh	2.B-M	.	voice	.	33.088	B-:maj
8a	you	.	.	.	.	.	.
8b-	make	.	.	.	.	.	.
8a	me	.	.	.	.	.	.
4b-	diz-	.	.	.	.	.	.
4cc	-zy	4CM	.	voice	.	34.379	C:maj
=21	=21	=21	=21	=21	=21	=21	=21
*>Letter>A	*>Letter>A	*>Letter>A	*>Letter>A	*>Letter>A	*>Letter>A	*>Letter>A	*>Letter>A
*>Label>Verse	*>Label>Verse	*>Label>Verse	*>Label>Verse	*>Label>Verse	*>Label>Verse	*>Label>Verse	*>Label>Verse
4r	.	1FM	newline	.	.	34.81	F:maj
8f	Hon-	.	.	.	(A	.	.
8f	-ey	.	.	.	a)	.	.
8e	hon-	.	.	.	(A	.	.
8f	-ey	.	.	.	a)	.	.
8r	.	.	.	.	.	.	.
[8a	let	.	.	.	.	.	.
=22	=22	=22	=22	=22	=22	=22	=22
8a]	_	1FM	.	.	.	36.519	F:maj
4f	me	.	.	.	(a	.	.
[8e	feel	.	.	.	B)	.	.
8e]	_	.	.	.	.	.	.
8f	it	.	.	.	.	.	.
8r	.	.	.	.	.	.	.
8c	ah	.	.	.	.	.	.
=23	=23	=23	=23	=23	=23	=23	=23
8d	hah	1B-M	.	.	.	38.228	B-:maj
8r	.	.	.	.	.	.	.
8f	hon-	.	.	.	(A	.	.
8f	-ey	.	.	.	a)	.	.
8e	hon-	.	.	.	(A	.	.
8f	-ey	.	.	.	a)	.	.
4r	.	.	.	.	.	.	.
=24	=24	=24	=24	=24	=24	=24	=24
1r	.	1B-M	.	.	.	39.937	B-:maj
=25	=25	=25	=25	=25	=25	=25	=25
4r	.	1FM	.	.	.	41.646	F:maj
8f	Hon	.	.	.	(A	.	.
8f	ey	.	.	.	a)	.	.
8e	hon	.	.	.	(A	.	.
8f	ey	.	.	.	a)	.	.
8r	.	.	.	.	.	.	.
[8a	don't	.	.	.	.	.	.
=26	=26	=26	=26	=26	=26	=26	=26
8a]	_	1FM	.	.	.	43.356	F:maj
4f	con-	.	.	.	.	.	.
[8e	-ceal	.	.	.	B	.	.
8e]	_	.	.	.	.	.	.
8f	it	.	.	.	.	.	.
8r	.	.	.	.	.	.	.
8c	ah	.	.	.	.	.	.
=27	=27	=27	=27	=27	=27	=27	=27
8d	hah	1B-M	.	.	.	45.065	B-:maj
8r	.	.	.	.	.	.	.
8f	hon-	.	.	.	(A	.	.
8f	-ey	.	.	.	a)	.	.
8e	hon-	.	.	.	(A	.	.
8f	-ey	.	.	.	a)	.	.
4r	.	.	.	.	.	.	.
=28	=28	=28	=28	=28	=28	=28	=28
2r	.	1B-M	.	.	.	46.774	B-:maj
4r	.	.	.	.	.	.	.
8r	.	.	.	.	.	.	.
8c	The	.	.	.	.	.	.
=29	=29	=29	=29	=29	=29	=29	=29
8cc	way	1FM	newline	.	.	48.483	F:maj
8cc	that	.	.	.	.	.	.
8cc	you	.	.	.	.	.	.
4a	kiss	.	.	.	.	.	.
8a	good	.	.	.	.	.	.
8f	night	.	.	.	F	.	.
8d	_	.	.	.	.	.	.
=30	=30	=30	=30	=30	=30	=30	=30
2r	.	1Dm	.	.	.	50.198	D:min
4r	.	.	.	.	.	.	.
8r	.	.	.	.	.	.	.
8c	the	.	.	.	.	.	.
=31	=31	=31	=31	=31	=31	=31	=31
8cc	way	1FM	.	.	.	51.913	F:maj
8cc	that	.	.	.	.	.	.
8cc	you	.	.	.	.	.	.
4a	hold	.	.	.	.	.	.
8a	me	.	.	.	.	.	.
8f	tight	.	.	.	F	.	.
8d	_	.	.	.	.	.	.
=32	=32	=32	=32	=32	=32	=32	=32
2r	.	1Dm	.	.	.	53.628	D:min
4r	.	.	.	.	.	.	.
8r	.	.	.	.	.	.	.
8c	I	.	.	.	.	.	.
=33	=33	=33	=33	=33	=33	=33	=33
*>Letter>B	*>Letter>B	*>Letter>B	*>Letter>B	*>Letter>B	*>Letter>B	*>Letter>B	*>Letter>B
*>Label>Verse	*>Label>Verse	*>Label>Verse	*>Label>Verse	*>Label>Verse	*>Label>Verse	*>Label>Verse	*>Label>Verse
8cc	feel	1FM	newline	.	.	55.343	F:maj
8cc	like	.	.	.	.	.	.
8cc	I	.	.	.	.	.	.
4a	wa-	.	.	.	.	.	.
8a	-nna	.	.	.	.	.	.
8f	sing	.	.	.	G	.	.
8d	_	.	.	.	.	.	.
=34	=34	=34	=34	=34	=34	=34	=34
4r	.	1Dm	.	.	.	57.043	D:min
8d	when	.	.	.	.	.	.
8d	you	.	.	.	.	.	.
8e	do	.	.	.	.	.	.
8f	your	.	.	.	.	.	.
8r	.	.	.	.	.	.	.
[8b-	thing	.	.	.	G	.	.
=35	=35	=35	=35	=35	=35	=35	=35
1b-]	_	1B-M	.	.	.	58.742	B-:maj
=36	=36	=36	=36	=36	=36	=36	=36
1r	.	1Cm	.	.	.	60.442	C:sus4(b7)
=37	=37	=37	=37	=37	=37	=37	=37
2r	.	1CMm	.	.	.	62.142	C:7
4r	.	.	.	.	.	.	.
8r	.	.	.	.	.	.	.
8G	I	.	.	.	.	.	.
=38	=38	=38	=38	=38	=38	=38	=38
*>Letter>C	*>Letter>C	*>Letter>C	*>Letter>C	*>Letter>C	*>Letter>C	*>Letter>C	*>Letter>C
*>Label>Bridge	*>Label>Bridge	*>Label>Bridge	*>Label>Bridge	*>Label>Bridge	*>Label>Bridge	*>Label>Bridge	*>Label>Bridge
8e-	don't	1Cm	newline	.	.	63.842	C:min
8e-	wa-	.	.	.	.	.	.
8d	-nna	.	.	.	.	.	.
8e-	hurt	.	.	.	.	.	.
8r	.	.	.	.	.	.	.
8d	you	.	.	.	.	.	.
8r	.	.	.	.	.	.	.
[8e-	ba-	.	.	.	.	.	.
=39	=39	=39	=39	=39	=39	=39	=39
8e-]	_	1FM	.	.	.	65.558	F:maj
8f	-by	.	.	.	a	.	.
4r	.	.	.	.	.	.	.
4r	.	.	.	.	.	.	.
8r	.	.	.	.	.	.	.
8F	I	.	.	.	.	.	.
=40	=40	=40	=40	=40	=40	=40	=40
8d	don't	2B-M	.	.	.	67.274	B-:maj
8d	wa-	.	.	.	.	.	.
8d	-na	.	.	.	.	.	.
[8c	see	.	.	.	.	.	.
16c]	_	2FM	.	.	.	68.132	F:maj/3
16r	.	.	.	.	.	.	.
8d	you	.	.	.	.	.	.
8r	.	.	.	.	.	.	.
8B-	cry	.	.	.	H	.	.
=41	=41	=41	=41	=41	=41	=41	=41
4G	_	1Gm	.	.	.	68.99	G:min
4r	.	.	.	.	.	.	.
4r	.	.	.	.	.	.	.
8r	.	.	.	.	.	.	.
8G	so	.	.	.	.	.	.
=42	=42	=42	=42	=42	=42	=42	=42
8e-	stay	1Cm	newline	.	.	70.706	C:min
8e-	on	.	.	.	.	.	.
8d	the	.	.	.	.	.	.
8e-	ground	.	.	.	.	.	.
8r	.	.	.	.	.	.	.
8f	girl	.	.	.	.	.	.
8r	.	.	.	.	.	.	.
8d	you	.	.	.	.	.	.
=43	=43	=43	=43	=43	=43	=43	=43
8e-	be-	1FM	.	.	.	72.399	F:maj
8e-	-tter	.	.	.	.	.	.
8d	not	.	.	.	.	.	.
8e-	get	.	.	.	.	.	.
8r	.	.	.	.	.	.	.
8f	too	.	.	.	.	.	.
8r	.	.	.	.	.	.	.
8c	high	.	.	.	H	.	.
=44	=44	=44	=44	=44	=44	=44	=44
4d	_	1B-M	.	.	.	74.092	B-:maj
4r	.	.	.	.	.	.	.
2r	.	.	.	.	.	.	.
=45	=45	=45	=45	=45	=45	=45	=45
2r	.	1B-M	.	.	.	75.786	B-:maj
4r	.	.	.	.	.	.	.
8r	.	.	.	.	.	.	.
8B-	But	.	.	.	.	.	.
=46	=46	=46	=46	=46	=46	=46	=46
8a-	I'm	1Fm	newline	.	.	77.479	F:min
8a-	gon-	.	.	.	.	.	.
8g	-na	.	.	.	.	.	.
8a-	stick	.	.	.	.	.	.
8r	.	.	.	.	.	.	.
4g	to	.	.	.	.	.	.
[8a-	you	.	.	.	.	.	.
=47	=47	=47	=47	=47	=47	=47	=47
8a-]	_	1B-M	.	.	.	79.181	B-:maj
4b-	boy	.	.	.	.	.	.
8r	.	.	.	.	.	.	.
4r	.	.	.	.	.	.	.
8r	.	.	.	.	.	.	.
8B-	you'll	.	.	.	.	.	.
=48	=48	=48	=48	=48	=48	=48	=48
8g	ne-	2E-M	.	.	.	80.883	E-:maj
8g	-ver	.	.	.	.	.	.
8g	get	.	.	.	.	.	.
4f	rid	.	.	.	.	.	.
.	.	2B-M	.	.	.	81.734	B-:maj/3
8g	of	.	.	.	.	.	.
8e-	me	.	.	.	a	.	.
[8c	_	.	.	.	.	.	.
=49	=49	=49	=49	=49	=49	=49	=49
8c]	_	1A-M	.	.	.	82.585	A-:maj
8r	.	.	.	.	.	.	.
4r	.	.	.	.	.	.	.
4r	.	.	.	.	.	.	.
8r	.	.	.	.	.	.	.
8c	there's	.	.	.	.	.	.
=50	=50	=50	=50	=50	=50	=50	=50
8c	no	1A-M	newline	.	.	84.287	A-:maj
8c	oth-	.	.	.	.	.	.
8c	-er	.	.	.	.	.	.
[8c	place	.	.	.	.	.	.
8c]	_	.	.	.	.	.	.
8d-	in	.	.	.	.	.	.
8e-	this	.	.	.	.	.	.
[8e-	world	.	.	.	.	.	.
=51	=51	=51	=51	=51	=51	=51	=51
8e-]	_	1D-M	.	.	.	85.995	D-:maj
8d-	where	.	.	.	.	.	.
8c	I	.	.	.	.	.	.
[8d-	ra-	.	.	.	.	.	.
8d-]	_	.	.	.	.	.	.
8A-	-ther	.	.	.	.	.	.
8B-	would	.	.	.	.	.	.
[8c	be	.	.	.	a	.	.
=52	=52	=52	=52	=52	=52	=52	=52
1c]	_	1Gmm	.	.	.	87.703	G:min7
=53	=53	=53	=53	=53	=53	=53	=53
1r	.	1CM	.	.	.	89.41	C:maj
=54	=54	=54	=54	=54	=54	=54	=54
*>Letter>A	*>Letter>A	*>Letter>A	*>Letter>A	*>Letter>A	*>Letter>A	*>Letter>A	*>Letter>A
*>Label>Verse	*>Label>Verse	*>Label>Verse	*>Label>Verse	*>Label>Verse	*>Label>Verse	*>Label>Verse	*>Label>Verse
4r	.	1FM	newline	.	.	91.118	F:maj
8f	Hon-	.	.	.	(A	.	.
8f	-ey	.	.	.	a)	.	.
8e	hon-	.	.	.	(A	.	.
8f	-ey	.	.	.	a)	.	.
8r	.	.	.	.	.	.	.
[8a	touch	.	.	.	.	.	.
=55	=55	=55	=55	=55	=55	=55	=55
8a]	_	1FM	.	.	.	92.823	F:maj
4f	me	.	.	.	(a	.	.
[8e	ba-	.	.	.	.	.	.
8e]	_	.	.	.	.	.	.
8f	-by	.	.	.	a)	.	.
8r	.	.	.	.	.	.	.
8c	ah	.	.	.	.	.	.
=56	=56	=56	=56	=56	=56	=56	=56
8d	hah	1B-M	.	.	.	94.528	B-:maj
8r	.	.	.	.	.	.	.
8f	hon-	.	.	.	(A	.	.
8f	-ey	.	.	.	a)	.	.
8e	hon-	.	.	.	(A	.	.
8f	-ey	.	.	.	a)	.	.
4r	.	.	.	.	.	.	.
=57	=57	=57	=57	=57	=57	=57	=57
1r	.	1B-M	.	.	.	96.233	B-:maj
=58	=58	=58	=58	=58	=58	=58	=58
4r	.	1FM	.	.	.	97.938	F:maj
8f	Hon	.	.	.	(A	.	.
8f	ey	.	.	.	a)	.	.
8e	hon	.	.	.	(A	.	.
8f	ey	.	.	.	a)	.	.
8r	.	.	.	.	.	.	.
[8a	hold	.	.	.	.	.	.
=59	=59	=59	=59	=59	=59	=59	=59
8a]	_	1FM	.	.	.	99.643	F:maj
4f	me	.	.	.	(a	.	.
[8e	ba-	.	.	.	.	.	.
8e]	_	.	.	.	.	.	.
8f	-by	.	.	.	a)	.	.
8r	.	.	.	.	.	.	.
8c	ah	.	.	.	.	.	.
=60	=60	=60	=60	=60	=60	=60	=60
8d	hah	1B-M	.	.	.	101.348	B-:maj
8r	.	.	.	.	.	.	.
8f	hon-	.	.	.	(A	.	.
8f	-ey	.	.	.	a)	.	.
8e	hon-	.	.	.	(A	.	.
8f	-ey	.	.	.	a)	.	.
4r	.	.	.	.	.	.	.
=61	=61	=61	=61	=61	=61	=61	=61
2r	.	1B-M	.	.	.	103.053	B-:maj
4r	.	.	.	.	.	.	.
8r	.	.	.	.	.	.	.
8c	You	.	.	.	.	.	.
=62	=62	=62	=62	=62	=62	=62	=62
*>Letter>B	*>Letter>B	*>Letter>B	*>Letter>B	*>Letter>B	*>Letter>B	*>Letter>B	*>Letter>B
*>Label>Verse	*>Label>Verse	*>Label>Verse	*>Label>Verse	*>Label>Verse	*>Label>Verse	*>Label>Verse	*>Label>Verse
8cc	look	1FM	newline	.	.	104.758	F:maj
8cc	like	.	.	.	.	.	.
8cc	a	.	.	.	.	.	.
4a	mo-	.	.	.	(I	.	.
8a	-vie	.	.	.	a	.	.
8f	star	.	.	.	i)	.	.
8d	_	.	.	.	.	.	.
=63	=63	=63	=63	=63	=63	=63	=63
2r	.	1Dm	.	.	.	106.453	D:min
4r	.	.	.	.	.	.	.
8r	.	.	.	.	.	.	.
8c	but	.	.	.	.	.	.
=64	=64	=64	=64	=64	=64	=64	=64
8cc	I	1FM	.	.	.	108.148	F:maj
8cc	know	.	.	.	.	.	.
8cc	just	.	.	.	.	.	.
4a	who	.	.	.	(I	.	.
8a	you	.	.	.	I	.	.
8f	are	.	.	.	i)	.	.
8d	_	.	.	.	.	.	.
=65	=65	=65	=65	=65	=65	=65	=65
2r	.	1Dm	.	.	.	109.842	D:min
4r	.	.	.	.	.	.	.
8r	.	.	.	.	.	.	.
8c	and	.	.	.	.	.	.
=66	=66	=66	=66	=66	=66	=66	=66
8cc	hon-	1FM	newline	voice	(A	111.537	F:maj
8cc	-ey	.	.	.	a)	.	.
8cc	to	.	.	.	.	.	.
4a	say	.	.	.	.	.	.
8a	the	.	.	.	.	.	.
8f	least	.	.	.	J	.	.
8d	_	.	.	.	.	.	.
=67	=67	=67	=67	=67	=67	=67	=67
4r	.	1Dm	.	voice	.	113.245	D:min
8d	you're	.	.	.	.	.	.
8d	a	.	.	.	.	.	.
8e	dog	.	.	.	.	.	.
8f	gone	.	.	.	.	.	.
8r	.	.	.	.	.	.	.
[8b-	beast	.	.	.	J	.	.
=68	=68	=68	=68	=68	=68	=68	=68
1b-]	_	1B-M	.	voice	.	114.953	B-:maj
=69	=69	=69	=69	=69	=69	=69	=69
1r	.	1Cm	.	voice	.	116.66	C:sus4(b7)
=70	=70	=70	=70	=70	=70	=70	=70
1r	.	1CMm	.	voice	.	118.368	C:7
=71	=71	=71	=71	=71	=71	=71	=71
*>Letter>C	*>Letter>C	*>Letter>C	*>Letter>C	*>Letter>C	*>Letter>C	*>Letter>C	*>Letter>C
*>Label>Bridge	*>Label>Bridge	*>Label>Bridge	*>Label>Bridge	*>Label>Bridge	*>Label>Bridge	*>Label>Bridge	*>Label>Bridge
1r	.	1Cm	newline	strings	.	120.076	C:min
=72	=72	=72	=72	=72	=72	=72	=72
1r	.	1FM	.	strings	.	121.752	F:maj
=73	=73	=73	=73	=73	=73	=73	=73
1r	.	2B-M	.	strings	.	123.427	B-:maj
.	.	2FM	.	strings	.	124.265	F:maj/3
=74	=74	=74	=74	=74	=74	=74	=74
4r	.	1Gm	.	strings	.	125.103	G:min
4r	.	.	.	.	.	.	.
4r	.	.	.	.	.	.	.
8r	.	.	.	.	.	.	.
8G	So	.	.	.	.	.	.
=75	=75	=75	=75	=75	=75	=75	=75
8e-	stay	1Cm	newline	voice	.	126.779	C:min
8e-	on	.	.	.	.	.	.
8d	the	.	.	.	.	.	.
8e-	ground	.	.	.	.	.	.
8r	.	.	.	.	.	.	.
8f	girl	.	.	.	.	.	.
8r	.	.	.	.	.	.	.
8d	you	.	.	.	.	.	.
=76	=76	=76	=76	=76	=76	=76	=76
8e-	be-	1FM	.	voice	.	128.494	F:maj
8e-	-tter	.	.	.	.	.	.
8d	not	.	.	.	.	.	.
8e-	get	.	.	.	.	.	.
8r	.	.	.	.	.	.	.
8f	too	.	.	.	.	.	.
8r	.	.	.	.	.	.	.
8c	high	.	.	.	H	.	.
=77	=77	=77	=77	=77	=77	=77	=77
2d	_	1B-M	.	voice	.	130.21	B-:maj
2r	.	.	.	.	.	.	.
=78	=78	=78	=78	=78	=78	=78	=78
1r	.	1B-M	.	voice	.	131.925	B-:maj
=79	=79	=79	=79	=79	=79	=79	=79
1r	.	1Fm	newline	strings	.	133.64	F:min
=80	=80	=80	=80	=80	=80	=80	=80
1r	.	1B-M	.	strings	.	135.329	B-:maj
=81	=81	=81	=81	=81	=81	=81	=81
1r	.	2E-M	.	strings	.	137.019	E-:maj
.	.	2B-M	.	strings	.	137.863	B-:maj/3
=82	=82	=82	=82	=82	=82	=82	=82
2r	.	1A-M	.	strings	.	138.708	A-:maj
4r	.	.	.	.	.	.	.
8r	.	.	.	.	.	.	.
8c	there's	.	.	.	.	.	.
=83	=83	=83	=83	=83	=83	=83	=83
8c	no	1A-M	newline	voice	.	140.397	A-:maj
8c	oth-	.	.	.	.	.	.
8c	-er	.	.	.	.	.	.
[8c	place	.	.	.	.	.	.
8c]	_	.	.	.	.	.	.
8d-	in	.	.	.	.	.	.
8e-	this	.	.	.	.	.	.
[8e-	world	.	.	.	.	.	.
=84	=84	=84	=84	=84	=84	=84	=84
8e-]	_	1D-M	.	voice	.	142.086	D-:maj
8d-	where	.	.	.	.	.	.
8c	I	.	.	.	.	.	.
[8d-	ra-	.	.	.	.	.	.
8d-]	_	.	.	.	.	.	.
8A-	-ther	.	.	.	.	.	.
8B-	would	.	.	.	.	.	.
[8c	be	.	.	.	a	.	.
=85	=85	=85	=85	=85	=85	=85	=85
1c]	_	1Gmm	.	voice	.	143.776	G:min7
=86	=86	=86	=86	=86	=86	=86	=86
1r	.	1CM	.	voice	.	145.466	C:maj
=87	=87	=87	=87	=87	=87	=87	=87
*>Letter>A	*>Letter>A	*>Letter>A	*>Letter>A	*>Letter>A	*>Letter>A	*>Letter>A	*>Letter>A
*>Label>Verse	*>Label>Verse	*>Label>Verse	*>Label>Verse	*>Label>Verse	*>Label>Verse	*>Label>Verse	*>Label>Verse
4r	.	1FM	newline	.	.	147.155	F:maj
8f	Hon-	.	.	.	(A	.	.
8f	-ey	.	.	.	a)	.	.
8e	hon-	.	.	.	(A	.	.
8f	-ey	.	.	.	a)	.	.
8r	.	.	.	.	.	.	.
[8a	how	.	.	.	.	.	.
=88	=88	=88	=88	=88	=88	=88	=88
8a]	_	1FM	.	.	.	148.861	F:maj
4f	you	.	.	.	.	.	.
[8e	thrill	.	.	.	(B	.	.
8e]	_	.	.	.	.	.	.
8f	me	.	.	.	a)	.	.
8r	.	.	.	.	.	.	.
8c	ah	.	.	.	.	.	.
=89	=89	=89	=89	=89	=89	=89	=89
8d	hah	1B-M	.	.	.	150.566	B-:maj
8r	.	.	.	.	.	.	.
8f	hon-	.	.	.	(A	.	.
8f	-ey	.	.	.	a)	.	.
8e	hon-	.	.	.	(A	.	.
8f	-ey	.	.	.	a)	.	.
4r	.	.	.	.	.	.	.
=90	=90	=90	=90	=90	=90	=90	=90
1r	.	1B-M	.	.	.	152.271	B-:maj
=91	=91	=91	=91	=91	=91	=91	=91
4r	.	1FM	.	.	.	153.976	F:maj
8f	Hon-	.	.	.	(A	.	.
8f	-ey	.	.	.	a)	.	.
8e	hon-	.	.	.	(A	.	.
8f	-ey	.	.	.	a)	.	.
8r	.	.	.	.	.	.	.
[8a	near-	.	.	.	.	.	.
=92	=92	=92	=92	=92	=92	=92	=92
8a]	_	1FM	.	.	.	155.682	F:maj
4f	-ly	.	.	.	(a	.	.
[8e	kill	.	.	.	B	.	.
8e]	_	.	.	.	.	.	.
8f	me	.	.	.	a)	.	.
8r	.	.	.	.	.	.	.
8c	ah	.	.	.	.	.	.
=93	=93	=93	=93	=93	=93	=93	=93
8d	hah	1B-M	.	.	.	157.387	B-:maj
8r	.	.	.	.	.	.	.
8f	hon-	.	.	.	(A	.	.
8f	-ey	.	.	.	a)	.	.
8e	hon-	.	.	.	(A	.	.
8f	-ey	.	.	.	a)	.	.
4r	.	.	.	.	.	.	.
=94	=94	=94	=94	=94	=94	=94	=94
2r	.	1B-M	.	.	.	159.092	B-:maj
4r	.	.	.	.	.	.	.
8r	.	.	.	.	.	.	.
8c	I'd	.	.	.	C	.	.
=95	=95	=95	=95	=95	=95	=95	=95
*>Letter>B	*>Letter>B	*>Letter>B	*>Letter>B	*>Letter>B	*>Letter>B	*>Letter>B	*>Letter>B
*>Label>Verse	*>Label>Verse	*>Label>Verse	*>Label>Verse	*>Label>Verse	*>Label>Verse	*>Label>Verse	*>Label>Verse
8cc	heard	1FM	newline	fadeout	.	160.798	F:maj
8cc	a-	.	.	.	.	.	.
8cc	-bout	.	.	.	.	.	.
4a	you	.	.	.	.	.	.
8a	be-	.	.	.	(a	.	.
8f	-fore	.	.	.	D)	.	.
8d	_	.	.	.	.	.	.
=96	=96	=96	=96	=96	=96	=96	=96
2r	.	1Dm	.	fadeout	.	162.48	D:min
4r	.	.	.	.	.	.	.
8r	.	.	.	.	.	.	.
8c	I	.	.	.	C	.	.
=97	=97	=97	=97	=97	=97	=97	=97
8cc	wan-	1FM	.	fadeout	.	164.163	F:maj
8cc	-ted	.	.	.	.	.	.
8cc	to	.	.	.	.	.	.
4a	know	.	.	.	.	.	.
8a	some	.	.	.	.	.	.
8f	more	.	.	.	D	.	.
8d	_	.	.	.	.	.	.
=98	=98	=98	=98	=98	=98	=98	=98
2r	.	1Dm	.	fadeout	.	165.846	D:min
4r	.	.	.	.	.	.	.
8r	.	.	.	.	.	.	.
8c	and	.	.	.	.	.	.
=99	=99	=99	=99	=99	=99	=99	=99
8cc	now	1FM	newline	voice	.	167.529	F:maj
8cc	I	.	.	.	C	.	.
8cc	know	.	.	.	.	.	.
4a	what	.	.	.	.	.	.
8a	they	.	.	.	.	.	.
8f	mean	.	.	.	E	.	.
8d	_	.	.	.	.	.	.
=100	=100	=100	=100	=100	=100	=100	=100
4r	.	1Dm	.	voice	.	169.114	D:min
8d	you're	.	.	.	.	.	.
8d	a	.	.	.	.	.	.
8e	love	.	.	.	.	.	.
8f	ma-	.	.	.	.	.	.
8r	.	.	.	.	.	.	.
[8b-	-chine	.	.	.	E	.	.
=101	=101	=101	=101	=101	=101	=101	=101
1b-]	_	1B-M	.	voice	.	170.7	B-:maj
=102	=102	=102	=102	=102	=102	=102	=102
1r	.	1B-M	.	voice	.	172.285	B-:maj
r;	.	1r;	.	r	.	173.871	N.C.
*-	*-	*-	*-	*-	*-	*-	*-
!!!BillboardChartDate: 1974/09/21
!!!BillboardPeak: 27
!!!BillboardWeeksOnChart: 10
!!!COC: Abba
!!!ENC: Nathaniel Condit-Schultz
!!!EST: Awating manual error checking and editing.
!!!OTL: Honey, Honey
!!!RDF**chordsym: original McGill chord annotation + (implied pitch class set, with bass pitch in first position)
!!!RDF**harmony: **recip + pitch class of root + harmonic quality
!!!RDF**leadinstrument: original McGill primary instrumentation annotation
!!!RDF**phrase: newline = linebreak in original McGill transcription
!!!RDF**timestamp: McGill audio timestamp in seconds
!!!RDT: 2017/01/12/
!!!SampleActualRank: 72
!!!SampleID#: 0902
!!!SampleTargetRank: 73
